flaticon/pins-and-locations/placeholder-3.svg

<svg xmlns="http://www.w3.org/2000/svg" width="32" height="32" viewBox="0 0 24 24">
    <path d="M 14.28125 5.71875 C 14.121094 5.558594 13.878906 5.558594 13.71875 5.71875 L 12 7.441406 L 10.28125 5.71875 C 10.121094 5.558594 9.878906 5.558594 9.71875 5.71875 C 9.558594 5.878906 9.558594 6.121094 9.71875 6.28125 L 11.441406 8 L 9.71875 9.71875 C 9.558594 9.878906 9.558594 10.121094 9.71875 10.28125 C 9.800781 10.359375 9.878906 10.398438 10 10.398438 C 10.121094 10.398438 10.199219 10.359375 10.28125 10.28125 L 12 8.558594 L 13.71875 10.28125 C 13.800781 10.359375 13.878906 10.398438 14 10.398438 C 14.121094 10.398438 14.199219 10.359375 14.28125 10.28125 C 14.441406 10.121094 14.441406 9.878906 14.28125 9.71875 L 12.558594 8 L 14.28125 6.28125 C 14.441406 6.121094 14.441406 5.878906 14.28125 5.71875 Z M 14.28125 5.71875"/>
    <path d="M 12 3.199219 C 9.359375 3.199219 7.199219 5.359375 7.199219 8 C 7.199219 10.640625 9.359375 12.800781 12 12.800781 C 14.640625 12.800781 16.800781 10.640625 16.800781 8 C 16.800781 5.359375 14.640625 3.199219 12 3.199219 Z M 12 12 C 9.800781 12 8 10.199219 8 8 C 8 5.800781 9.800781 4 12 4 C 14.199219 4 16 5.800781 16 8 C 16 10.199219 14.199219 12 12 12 Z M 12 12"/>
    <path d="M 12 0 C 7.601562 0 4 3.601562 4 8 C 4 10.160156 4.640625 11.480469 5.558594 13.28125 C 5.679688 13.558594 5.839844 13.839844 6 14.160156 C 8.238281 18.761719 11.640625 23.761719 11.679688 23.839844 C 11.761719 23.921875 11.878906 24 12 24 C 12.121094 24 12.238281 23.921875 12.320312 23.800781 C 12.359375 23.761719 15.761719 18.761719 18 14.160156 C 18.160156 13.839844 18.28125 13.558594 18.441406 13.28125 C 19.359375 11.480469 20 10.160156 20 8 C 20 3.601562 16.398438 0 12 0 Z M 17.71875 12.878906 C 17.601562 13.199219 17.441406 13.480469 17.28125 13.800781 C 15.480469 17.480469 12.921875 21.480469 12 22.839844 C 11.078125 21.480469 8.519531 17.519531 6.71875 13.800781 C 6.558594 13.519531 6.441406 13.199219 6.28125 12.921875 C 5.398438 11.160156 4.800781 9.960938 4.800781 8 C 4.800781 4.039062 8.039062 0.800781 12 0.800781 C 15.960938 0.800781 19.199219 4.039062 19.199219 8 C 19.199219 9.960938 18.601562 11.160156 17.71875 12.878906 Z M 17.71875 12.878906"/>
</svg>

<svg xmlns="http://www.w3.org/2000/svg" width="32" height="32" viewBox="0 0 24 24">
    <path d="M14.281 5.719a.39.39 0 0 0-.562 0L12 7.44 10.281 5.72a.39.39 0 0 0-.562 0 .39.39 0 0 0 0 .562L11.44 8 9.72 9.719a.39.39 0 0 0 0 .562c.082.078.16.117.281.117.121 0 .2-.039.281-.117L12 8.56l1.719 1.722c.082.078.16.117.281.117.121 0 .2-.039.281-.117a.39.39 0 0 0 0-.562L12.56 8l1.722-1.719a.39.39 0 0 0 0-.562zm0 0"/>
    <path d="M12 3.2C9.36 3.2 7.2 5.36 7.2 8c0 2.64 2.16 4.8 4.8 4.8 2.64 0 4.8-2.16 4.8-4.8 0-2.64-2.16-4.8-4.8-4.8zm0 8.8c-2.2 0-4-1.8-4-4s1.8-4 4-4 4 1.8 4 4-1.8 4-4 4zm0 0"/>
    <path d="M12 0C7.602 0 4 3.602 4 8c0 2.16.64 3.48 1.559 5.281.12.278.28.559.441.88 2.238 4.6 5.64 9.6 5.68 9.679.082.082.199.16.32.16s.238-.078.32-.2c.04-.038 3.442-5.038 5.68-9.64.16-.32.281-.601.441-.879C19.36 11.481 20 10.161 20 8c0-4.398-3.602-8-8-8zm5.719 12.879c-.117.32-.278.601-.438.922-1.8 3.68-4.36 7.68-5.281 9.039-.922-1.36-3.48-5.32-5.281-9.04-.16-.28-.278-.6-.438-.878C5.398 11.16 4.801 9.96 4.801 8 4.8 4.04 8.039.8 12 .8c3.96 0 7.2 3.24 7.2 7.2 0 1.96-.598 3.16-1.481 4.879zm0 0"/>
</svg>
